src/assets/img/icons/activity/wheat.svg

<svg width="77" height="76" viewBox="0 0 77 76" fill="none" xmlns="http://www.w3.org/2000/svg">
<path d="M38.5251 12.175C39.6942 12.175 40.6419 11.518 40.6419 10.7074V1.46767C40.6419 0.657075 39.6942 0 38.5251 0C37.3559 0 36.4082 0.657075 36.4082 1.46767V10.7074C36.4082 11.518 37.3559 12.175 38.5251 12.175Z" fill="#EDE1CE"/>
<path d="M50.6784 12.8733C51.8473 12.8733 52.7953 12.2162 52.7953 11.4056V8.53629C52.7953 7.72569 51.8473 7.0686 50.6784 7.0686C49.5095 7.0686 48.5615 7.72569 48.5615 8.53629V11.4056C48.5615 12.2162 49.5095 12.8733 50.6784 12.8733Z" fill="#EDE1CE"/>
<path d="M26.3727 12.655C27.5419 12.655 28.4896 11.998 28.4896 11.1874V8.31821C28.4896 7.50764 27.5419 6.85059 26.3727 6.85059C25.2036 6.85059 24.2559 7.50764 24.2559 8.31821V11.1874C24.2559 11.998 25.2036 12.655 26.3727 12.655Z" fill="#EDE1CE"/>
<path d="M75.8021 35.5847C75.0696 35.34 74.1998 35.408 73.5641 35.7592L65.1716 40.397C65.0443 40.4673 64.9226 40.541 64.8003 40.6143V31.3642C64.8003 30.5536 63.8523 29.8965 62.6834 29.8965C61.5145 29.8965 60.5665 30.5536 60.5665 31.3642V40.615C60.444 40.5417 60.3222 40.4679 60.1948 40.3976L54.6814 37.3506V19.0369C54.6814 18.4649 54.2022 17.945 53.4537 17.7049C52.7047 17.4646 51.8232 17.5479 51.1943 17.918L41.258 23.7678C40.1779 24.4037 39.2632 25.1436 38.5255 25.9553C37.7878 25.1437 36.8733 24.4037 35.7931 23.7678L25.8567 17.918C25.2278 17.5479 24.3463 17.4646 23.5976 17.7048C22.8488 17.9449 22.3698 18.4647 22.3698 19.0367V37.3233L16.8069 40.3973C16.6792 40.4678 16.5569 40.5417 16.4341 40.6153V31.3642C16.4341 30.5536 15.4864 29.8965 14.3172 29.8965C13.1481 29.8965 12.2004 30.5536 12.2004 31.3642V40.6143C12.078 40.541 11.9563 40.4673 11.8293 40.397L3.43631 35.7593C2.8004 35.4078 1.93058 35.3401 1.19815 35.5848C0.465712 35.8295 0 36.3433 0 36.9071V54.0772C0 56.672 1.67846 59.0876 4.60482 60.7049L12.1999 64.9021V68.2526C12.1999 69.0632 13.1477 69.7203 14.3168 69.7203C15.4859 69.7203 16.4337 69.0632 16.4337 68.2526V64.9015L24.0288 60.7049C25.2502 60.0304 26.264 59.2015 27.028 58.272C27.1979 58.3756 27.37 58.4779 27.5483 58.5764L36.4082 63.4725V73.6795C36.4082 74.4901 37.3559 75.1472 38.5251 75.1472C39.6942 75.1472 40.642 74.4901 40.642 73.6795V63.4724L49.5021 58.5761C49.6689 58.4839 49.8294 58.3879 49.989 58.2912C50.7511 59.2126 51.7591 60.0348 52.9708 60.7041L60.5661 64.9008V68.2522C60.5661 69.0628 61.5141 69.7199 62.683 69.7199C63.8519 69.7199 64.7999 69.0628 64.7999 68.2522V64.9016L72.3947 60.7046C75.3213 59.0873 77 56.6716 77 54.0769V36.9069C77.0002 36.3433 76.5345 35.8293 75.8021 35.5847ZM32.8256 37.8495C35.1025 39.1082 36.4084 40.9879 36.4084 43.0072V47.8965L30.1872 44.4585C28.4566 43.5023 27.2451 42.1339 26.7998 40.6308C26.5466 39.7706 26.6099 38.8972 26.6031 38.0252V34.4111L32.8256 37.8495ZM50.4475 34.4111L50.4471 39.3001C50.4471 41.2923 49.1111 43.2165 46.8634 44.4585L40.6422 47.8965V43.0072C40.6422 40.9878 41.9485 39.1078 44.2258 37.8491L50.4475 34.4111ZM67.81 42.6925L72.7665 39.9536V42.5828V43.8035C72.7665 45.4996 71.6693 47.0785 69.7563 48.1357L64.8011 50.8741V47.0245C64.8011 47.0203 64.8007 47.0162 64.8007 47.0119C64.8062 45.3208 65.9021 43.7471 67.81 42.6925ZM60.5663 46.9988V47.0248V50.8745L55.6116 48.1368C55.2786 47.9524 54.9676 47.7499 54.6812 47.5315V43.1866V41.1046L57.5561 42.6934C59.4603 43.745 60.5553 45.3132 60.5663 46.9988ZM40.6424 31.0334C40.6424 29.0935 41.8653 27.2609 43.9982 26.0053L50.4477 22.2083V24.5003V27.4795C50.4477 29.4989 49.1414 31.3789 46.8636 32.6378L40.6424 36.0758V31.0334ZM26.6033 22.2085L33.0526 26.0053C35.1853 27.2609 36.4084 29.0935 36.4084 31.0334V36.0758L35.4649 35.5544C35.4643 35.5541 35.4639 35.5538 35.4635 35.5536L30.1874 32.6379C27.9096 31.3792 26.6033 29.4992 26.6033 27.4798V24.5006V22.2085ZM19.4449 42.6933L22.3696 41.0772V43.1866V47.4948C22.0711 47.7267 21.7436 47.9413 21.3909 48.1359L16.4339 50.8749V47.025V47.0142C16.4381 45.3226 17.5346 43.7481 19.4449 42.6933ZM4.23374 39.9536L9.18996 42.6925C11.1009 43.7486 12.1974 45.3253 12.1997 47.0194C12.1997 47.021 12.1995 47.0226 12.1995 47.0242V50.8742L7.24371 48.1354C5.3307 47.0784 4.23374 45.4994 4.23374 43.8033V41.1536V39.9536ZM4.23374 54.0771V51.4086V50.2272L9.18996 52.9661C11.1011 54.0223 12.1976 55.5992 12.1997 57.2934C12.1997 57.2952 12.1995 57.297 12.1995 57.2987V61.1478L7.24371 58.409C5.33091 57.3521 4.23374 55.7732 4.23374 54.0771ZM21.3909 58.4087L16.4339 61.1478V57.2986V57.2887C16.4383 55.5973 17.5351 54.0223 19.4455 52.966L22.374 51.3468C22.425 52.8608 23.0012 54.3699 24.0506 55.6985C23.5794 56.7633 22.6534 57.7116 21.3909 58.4087ZM28.1346 54.7133C27.185 53.6074 26.6037 52.421 26.6037 51.123V46.2336L32.8246 49.6713C35.1021 50.93 36.4084 52.81 36.4084 54.8294V58.6864V59.7187L30.1872 56.2807C29.373 55.8307 28.6852 55.3001 28.1346 54.7133C28.123 54.6998 28.6852 55.3001 28.1346 54.7133ZM46.8636 56.2807L40.6424 59.7187V54.8294C40.6424 52.81 41.9487 50.93 44.2262 49.6713L50.4473 46.2336V51.123C50.4471 53.1142 49.1098 55.0393 46.8636 56.2807ZM52.9693 55.7391C54.0326 54.4085 54.619 52.8942 54.6762 51.3741L57.5555 52.966C59.4598 54.0191 60.5555 55.5878 60.5665 57.2733V57.2986V61.1475L55.6097 58.4086C54.3641 57.7207 53.4454 56.7868 52.9693 55.7391ZM72.7665 54.0771C72.7665 55.773 71.6693 57.352 69.7563 58.4093L64.8011 61.1477V57.2989C64.8011 57.2945 64.8007 57.2902 64.8007 57.2859C64.8062 55.5947 65.9021 54.0209 67.81 52.9663L72.7665 50.2274V54.0771Z" fill="#EDE1CE"/>
<path d="M24.2946 11.8422C24.5802 12.3174 25.3753 12.561 26.0732 12.3843C26.813 12.197 27.1944 11.6018 26.8904 11.0964C26.6087 10.6197 25.8081 10.3771 25.1117 10.5533C24.3685 10.7415 23.9949 11.3354 24.2946 11.8422C24.2594 11.7828 24.3297 11.9007 24.2946 11.8422Z" fill="#EDE1CE"/>
</svg>

<svg width="77" height="76" fill="none" xmlns="http://www.w3.org/2000/svg"><path d="M38.525 12.175c1.17 0 2.117-.657 2.117-1.468v-9.24c0-.81-.948-1.467-2.117-1.467-1.17 0-2.117.657-2.117 1.468v9.24c0 .81.948 1.467 2.117 1.467zm12.153.698c1.17 0 2.117-.657 2.117-1.467v-2.87c0-.81-.948-1.467-2.117-1.467-1.168 0-2.116.657-2.116 1.467v2.87c0 .81.948 1.467 2.116 1.467zm-24.305-.218c1.169 0 2.117-.657 2.117-1.468V8.318c0-.81-.948-1.467-2.117-1.467-1.17 0-2.117.657-2.117 1.467v2.87c0 .81.948 1.467 2.117 1.467zm49.429 22.93c-.732-.245-1.602-.177-2.238.174l-8.392 4.638c-.128.07-.25.144-.372.217v-9.25c0-.81-.948-1.468-2.117-1.468s-2.117.658-2.117 1.468v9.251c-.122-.073-.244-.147-.371-.217L54.68 37.35V19.037c0-.572-.479-1.092-1.227-1.332-.75-.24-1.63-.157-2.26.213l-9.936 5.85c-1.08.636-1.995 1.376-2.733 2.187-.737-.811-1.652-1.551-2.732-2.187l-9.936-5.85c-.63-.37-1.51-.453-2.26-.213-.748.24-1.227.76-1.227 1.332v18.286l-5.563 3.074c-.128.07-.25.145-.373.218v-9.25c0-.811-.948-1.468-2.117-1.468s-2.117.657-2.117 1.467v9.25c-.122-.073-.244-.147-.37-.217l-8.394-4.638c-.636-.351-1.505-.419-2.238-.174C.466 35.83 0 36.343 0 36.907v17.17c0 2.595 1.678 5.01 4.605 6.628l7.595 4.197v3.35c0 .811.948 1.468 2.117 1.468s2.117-.657 2.117-1.467V64.9l7.595-4.196c1.221-.675 2.235-1.503 2.999-2.433.17.104.342.206.52.304l8.86 4.896V73.68c0 .81.948 1.467 2.117 1.467 1.17 0 2.117-.657 2.117-1.468V63.473l8.86-4.896c.167-.092.327-.188.487-.285.762.922 1.77 1.744 2.982 2.413l7.595 4.197v3.351c0 .81.948 1.468 2.117 1.468s2.117-.657 2.117-1.468v-3.35l7.595-4.197C75.32 59.087 77 56.672 77 54.077v-17.17c0-.564-.466-1.078-1.198-1.322zm-42.976 2.264c2.276 1.26 3.582 3.139 3.582 5.158v4.89l-6.22-3.438c-1.731-.957-2.943-2.325-3.388-3.828-.253-.86-.19-1.734-.197-2.606v-3.614l6.223 3.438zm17.621-3.438v4.89c0 1.991-1.336 3.916-3.584 5.157l-6.22 3.439v-4.89c0-2.02 1.306-3.9 3.583-5.158l6.221-3.438zm17.363 8.282l4.956-2.74v3.851c0 1.697-1.097 3.276-3.01 4.333l-4.955 2.738v-3.862c.005-1.691 1.101-3.265 3.009-4.32zm-7.244 4.306v3.876l-4.954-2.738a7.626 7.626 0 01-.93-.605v-6.427l2.874 1.588c1.904 1.052 3 2.62 3.01 4.306zM40.642 31.033c0-1.94 1.223-3.772 3.356-5.028l6.45-3.797v5.272c0 2.019-1.307 3.899-3.584 5.158l-6.222 3.438v-5.043zm-14.039-8.825l6.45 3.797c2.132 1.256 3.355 3.088 3.355 5.028v5.043l-.943-.522h-.002l-5.276-2.916c-2.277-1.259-3.584-3.139-3.584-5.158v-5.271zm-7.158 20.485l2.925-1.616v6.418a7.502 7.502 0 01-.98.64l-4.956 2.74v-3.86c.004-1.692 1.1-3.267 3.01-4.322zm-15.211-2.74l4.956 2.74c1.91 1.056 3.007 2.632 3.01 4.326v3.855l-4.956-2.739c-1.913-1.057-3.01-2.636-3.01-4.332v-3.85zm0 14.124v-3.85l4.956 2.74c1.911 1.055 3.008 2.632 3.01 4.326v3.855l-4.956-2.739c-1.913-1.057-3.01-2.636-3.01-4.332zM21.39 58.41l-4.957 2.739v-3.86c.004-1.69 1.101-3.266 3.011-4.322l2.929-1.62c.051 1.515.627 3.024 1.677 4.353-.472 1.064-1.398 2.013-2.66 2.71zm6.744-3.696c-.95-1.106-1.531-2.292-1.531-3.59v-4.89l6.22 3.438c2.278 1.259 3.584 3.139 3.584 5.158v4.89l-6.22-3.438a8.313 8.313 0 01-2.053-1.568c-.012-.013.55.587 0 0zm18.729 1.568l-6.222 3.438v-4.89c0-2.019 1.307-3.899 3.584-5.158l6.221-3.437v4.889c0 1.991-1.337 3.916-3.583 5.158zm6.105-.542c1.064-1.33 1.65-2.845 1.707-4.365l2.88 1.592c1.904 1.053 3 2.622 3.01 4.307v3.875l-4.956-2.74c-1.246-.687-2.165-1.621-2.64-2.669zm19.797-1.662c0 1.696-1.097 3.275-3.01 4.332L64.8 61.149v-3.862c.005-1.691 1.101-3.265 3.009-4.32l4.956-2.739v3.85z" fill="#EDE1CE"/><path d="M24.295 11.842c.285.475 1.08.719 1.778.542.74-.187 1.121-.782.817-1.288-.281-.476-1.082-.719-1.778-.543-.743.188-1.117.782-.817 1.29-.036-.06.035.058 0 0z" fill="#EDE1CE"/></svg>
